X:1
T: The Praties are dug, and the Frost is all over
C:
R:Jig
Q:180
K:D
M:6/8
L:1/16
|:A2|d2f2e2 d2c2B2|A2d2F2 E4D2|F2A2A2 A2F2A2|B2e2e2 e4f2|
d2f2e2 d2c2B2|A2d2G2 E4D2|F2A2A2 A2F2A2|B2d2d2 d4:|
|:g2|f2a2a2 a2f2d2|g2b2b2 b2a2g2|f2a2a2 a2g2f2|g2e2e2 e4f2|
f2a2a2 a2g2f2|g2b2b2 b2a2g2|f2e2d2 d2g2e2|f2d2d2 d4:|
|:g2|f2a2a2 a2f2d2|g2b2b2 b2a2g2|f2a2a2 a2g2f2|g2e2e2 e4g2|
f2a2a2 f2a2a2|g2b2b2 g2b2b2|f2e2d2 e2g2e2|f2d2d2 d4:|
